X: 38556
T: Stig, The
R: jig
M: 6/8
K: Dmajor
F ~A3 dc|~B3 {c}BAB|def {g}fed|f2d cdB|
e ~f3 ed|f2d cdB|F ~A3 dc|~B3 BAG|
~F3 Adc|~B3 {c}BAB|def {g}fed|f2d cdB|
e ~f3 ed|f2d cdB|F ~A3 dc|~B3 B z2|
f ~a3 fe|fbf afe|d ~f3 ed|f2d cdB|
f ~a3 fe|bfa efd|F ~A3 dc|~B3 ~B3|
f ~a3 fe|f/g/b f afe|d ~f3 ed|f2d cdB|
f ~a3 fe|bfa efd|F ~A3 dc|~B3 BAG|

